X:13
T:No.133 Bandle and Go
M:6/8
L:1/8
C:jig
K:G
a||gee edB|gfg B2a|gee edB|dBA A2a|
gee edB|gfg a2a|age edB|dBA A2a|
gee edB|gfg B2a|gee edB|dBA A2a|
gee edB|gfg a2a|age ege|dBA ABc||
d2B d2B|gfg age|d2B d2B|dBG GBc|
d2B d2B|gfg a2a|age edB|dBA ABc|
d2B d2B|gfg age|d2B d2B|dBG GBc|
d2B d2B|gfg a2a|age ege|dBA A2a||
